modules/feathericon/icons/youtube.svg

<?xml version="1.0" encoding="UTF-8"?>
<svg width="14px" height="10px" viewBox="0 0 14 10" version="1.1" xmlns="http://www.w3.org/2000/svg" xmlns:xlink="http://www.w3.org/1999/xlink">
    <!-- Generator: sketchtool 48.1 (47250) - http://www.bohemiancoding.com/sketch -->
    <title>youtube</title>
    <desc>Created with sketchtool.</desc>
    <defs></defs>
    <g id="brand" stroke="none" stroke-width="1" fill="none" fill-rule="evenodd">
        <g id="youtube" fill="#000000">
            <path d="M5.55466597,6.73930465 L5.55402179,2.80567703 L9.33688319,4.77934385 L5.55466597,6.73930465 Z M13.8601986,2.12422745 C13.8601986,2.12422745 13.7233851,1.15947443 13.3036383,0.734628944 C12.7712691,0.177013243 12.1745364,0.174258333 11.900882,0.141610594 C9.94178466,-1.77635684e-15 7.00303588,-1.77635684e-15 7.00303588,-1.77635684e-15 L6.99695041,-1.77635684e-15 C6.99695041,-1.77635684e-15 4.05827016,-1.77635684e-15 2.09910431,0.141610594 C1.82543622,0.174258333 1.22892283,0.177013243 0.696361737,0.734628944 C0.276601181,1.15947443 0.14000699,2.12422745 0.14000699,2.12422745 C0.14000699,2.12422745 0,3.25715332 0,4.3900929 L0,5.45221347 C0,6.58512564 0.14000699,7.71805151 0.14000699,7.71805151 C0.14000699,7.71805151 0.276601181,8.68281823 0.696361737,9.10766372 C1.22892283,9.66526572 1.92847807,9.64763977 2.24005702,9.70608224 C3.36007182,9.81348261 7.00000685,9.84671971 7.00000685,9.84671971 C7.00000685,9.84671971 9.94178466,9.84229266 11.900882,9.70066836 C12.1745364,9.66803433 12.7712691,9.66526572 13.3036383,9.10766372 C13.7233851,8.68281823 13.8601986,7.71805151 13.8601986,7.71805151 C13.8601986,7.71805151 14,6.58512564 14,5.45221347 L14,4.3900929 C14,3.25715332 13.8601986,2.12422745 13.8601986,2.12422745 L13.8601986,2.12422745 Z" id="Shape"></path>
        </g>
    </g>
</svg>

<svg width="14" height="10" viewBox="0 0 14 10" xmlns="http://www.w3.org/2000/svg"><path d="M5.555 6.74l-.001-3.934 3.783 1.973-3.782 1.96zm8.305-4.616s-.137-.965-.556-1.39C12.77.178 12.174.175 11.9.143 9.94 0 7.003 0 7.003 0h-.006S4.058 0 2.099.142C1.825.174 1.23.177.696.735c-.42.424-.556 1.39-.556 1.39S0 3.256 0 4.39v1.062c0 1.133.14 2.266.14 2.266s.137.965.556 1.39c.533.557 1.232.54 1.544.598 1.12.107 4.76.14 4.76.14s2.942-.004 4.9-.145c.275-.033.871-.036 1.404-.593.42-.425.556-1.39.556-1.39S14 6.585 14 5.452V4.39c0-1.133-.14-2.266-.14-2.266z" fill="#000" fill-rule="evenodd"/></svg>
